svgs/regular/bed.svg

<svg xmlns="http://www.w3.org/2000/svg" viewBox="0 0 640 512"><!-- Font Awesome Pro 5.15.3 by @fontawesome - https://fontawesome.com License - https://fontawesome.com/license (Commercial License) --><path d="M168 304c48.52 0 88-39.48 88-88s-39.48-88-88-88-88 39.48-88 88 39.48 88 88 88zm0-128c22.06 0 40 17.94 40 40s-17.94 40-40 40-40-17.94-40-40 17.94-40 40-40zm360-48H304c-8.84 0-16 7.16-16 16v192H48V80c0-8.84-7.16-16-16-16H16C7.16 64 0 71.16 0 80v352c0 8.84 7.16 16 16 16h16c8.84 0 16-7.16 16-16v-48h544v48c0 8.84 7.16 16 16 16h16c8.84 0 16-7.16 16-16V240c0-61.86-50.14-112-112-112zm64 208H336V176h192c35.29 0 64 28.71 64 64v96z"/></svg>

<svg xmlns="http://www.w3.org/2000/svg" viewBox="0 0 640 512"><!--! Font Awesome Pro 6.0.0 by @fontawesome - https://fontawesome.com License - https://fontawesome.com/license (Commercial License) Copyright 2022 Fonticons, Inc. --><path d="M168 304C216.5 304 256 264.5 256 216S216.5 128 168 128S80 167.5 80 216S119.5 304 168 304zM168 176c21.1 0 40 18 40 40C208 238 189.1 256 168 256C145.1 256 128 238 128 216C128 194 145.1 176 168 176zM528 128h-224C295.2 128 288 135.2 288 144v192H48v-280C48 42.75 37.25 32 24 32S0 42.75 0 55.1V456C0 469.3 10.75 480 23.1 480S48 469.3 48 456V384h544v72C592 469.3 602.7 480 616 480S640 469.3 640 456V240C640 178.1 589.9 128 528 128zM592 336h-256v-160h192c35.25 0 64 28.75 64 64V336z"/></svg>
